X:1
T:Title
%%score { 1 | ( 2 3 ) }
L:1/8
M:6/8
K:Bb
V:1 treble nm="Grand Piano"
V:2 bass 
V:3 bass 
V:1
 z3 z2[Q:1/4=87] [DF] | [DF][DB][Ec] [Fd][DB][Fd] | [Ac][GB][EG] [DF]2 [DF] | %3
 [DF][DB][Ec] [=Ed][Ec][EG] |[M:5/8] [Ec]-[Ec]- [Ec]3 |[M:1/8] [EF] | %6
[M:3/4] [DF][DB] [Ec][Fd] [DB][Fd] | [Ac][GB] [EG] [DF]2 [Ge] | dF dc Fc | %9
[M:5/8] [DB]-[DB]- [DB]3 |[M:1/8] [DF] |[M:3/4] [DF][B,D] [CE][DF] [FB][Fc] | [Fd]4- [Fd][Fc] | %13
 [GB][GB] [GB]c BG |[M:5/8] [B,DF]-[B,DF]- [B,DF]3 |[M:1/8][K:bass] [F,CE] | %16
[M:3/4] [F,B,D][K:treble][DF] [DB] d2 c/B/ |[M:7/8] Bcd [Ge]3 [Ge] |[M:3/4] dF dc Fc | %19
[M:5/8] [DB]-[DB]- [DB]3 |] %20
V:2
 z3 z2 [B,,B,] | [B,,B,][B,,B,][B,,B,] [B,,B,][B,,B,][B,,B,] | %2
 [E,B,][E,B,][E,B,] [B,,B,]2 [B,,B,] | [B,,B,][B,,B,][B,,B,] [C,B,][C,G,][C,B,] | %4
[M:5/8] [F,A,]-[F,A,]- [F,A,]3 |[M:1/8] [F,A,] | %6
[M:3/4] [B,,B,][B,,B,] [B,,B,][B,,B,] [B,,B,][B,,B,] | [E,B,][E,B,] [E,B,] [B,,B,]2 [E,B,] | %8
 [F,B,F][F,B,D] [F,B,F][F,A,E] [F,A,E][F,A,E] |[M:5/8] [B,,B,]-[B,,B,]- [B,,B,]3 |[M:1/8] [B,,B,] | %11
[M:3/4] [B,,B,][B,,F,] [B,,F,][B,,B,] [D,B,][F,A,] | B,-[D,B,-] [F,B,] B,2 [D,B,] | %13
 [E,B,][E,B,] [E,B,][E,G,E] [E,G,E][E,B,E] |[M:5/8] B,,D,F, B,,2 |[M:1/8] B,, | %16
[M:3/4] B,,[B,,B,] [B,,B,][K:treble] [B,F]2 [F,A,E]/[G,B,D]/ | %17
[M:7/8] [G,B,D][F,A,F][B,F][K:bass] [E,B,]3 [E,B,] | %18
[M:3/4] [F,B,F][F,B,D] [F,B,F][F,A,E] [F,A,E][F,A,E] |[M:5/8] [B,,B,]-[B,,B,]- [B,,B,]3 |] %20
V:3
 x6 | x6 | x6 | x6 |[M:5/8] x5 |[M:1/8] x |[M:3/4] x6 | x6 | x6 |[M:5/8] x5 |[M:1/8] x | %11
[M:3/4] x6 | .B,,2 z2 z2 | x6 |[M:5/8] x5 |[M:1/8] x |[M:3/4] x3[K:treble] x3 | %17
[M:7/8] x3[K:bass] x4 |[M:3/4] x6 |[M:5/8] x5 |] %20

